humanity-icon-theme/Humanity-Dark/places/22/distributor-logo.svg

<?xml version="1.0" encoding="UTF-8" standalone="no"?>
<!-- Created with Inkscape (http://www.inkscape.org/) -->

<svg
   xmlns:svg="http://www.w3.org/2000/svg"
   xmlns="http://www.w3.org/2000/svg"
   xmlns:xlink="http://www.w3.org/1999/xlink"
   version="1.0"
   width="22"
   height="22"
   id="svg2">
  <defs
     id="defs4">
    <linearGradient
       id="linearGradient7012-661-145-733-759-865-745-661-970-94">
      <stop
         id="stop3618"
         style="stop-color:#f0c178;stop-opacity:1"
         offset="0" />
      <stop
         id="stop3270"
         style="stop-color:#e18941;stop-opacity:1"
         offset="0.5" />
      <stop
         id="stop3620"
         style="stop-color:#ec4f18;stop-opacity:1"
         offset="1" />
    </linearGradient>
    <linearGradient
       id="linearGradient3390-178-986-453">
      <stop
         id="stop3624"
         style="stop-color:#bb2b12;stop-opacity:1"
         offset="0" />
      <stop
         id="stop3626"
         style="stop-color:#cd7233;stop-opacity:1"
         offset="1" />
    </linearGradient>
    <linearGradient
       x1="14"
       y1="23"
       x2="14"
       y2="1"
       id="linearGradient3657"
       xlink:href="#linearGradient3390-178-986-453"
       gradientUnits="userSpaceOnUse" />
    <radialGradient
       cx="11"
       cy="2.8998573"
       r="10.706052"
       fx="11"
       fy="2.8998573"
       id="radialGradient3665"
       xlink:href="#linearGradient7012-661-145-733-759-865-745-661-970-94"
       gradientUnits="userSpaceOnUse"
       gradientTransform="matrix(-6.5430215e-8,2.0549125,-2.0549125,-6.5430215e-8,13.958954,-21.604038)" />
  </defs>
  <g
     transform="translate(-1.0000512,-0.9999426)"
     id="layer1">
    <path
       d="m 17.96875,12.5 c -0.173489,1.378272 -0.975312,2.670429 -2.184372,3.373193 -1.011352,0.607656 -2.271288,0.78983 -3.409378,0.470557 -0.697917,1.166667 -1.395833,2.333333 -2.09375,3.5 1.324994,0.553063 2.79191,0.776152 4.21875,0.59375 -0.0073,-1.862092 1.461217,-3.583249 3.298768,-3.876142 C 18.675765,16.393835 19.596785,16.571788 20.375,17 21.212908,15.840622 21.77215,14.458606 21.90625,13.032214 21.88347,12.867251 21.95054,12.612445 21.87524,12.5 c -1.302164,0 -2.604327,0 -3.906491,0 z M 8.5,5.1250001 C 7.3803721,5.9401955 6.4545109,7.0247777 5.84375,8.2812501 6.8452549,9.0084339 7.5,10.168567 7.5,11.5 c -1e-7,1.468745 -0.787886,2.74193 -1.96875,3.4375 0.5854374,1.586235 1.6276344,2.956748 2.96875,3.9375 l 2.09375,-3.46875 C 9.6277906,14.580676 9,13.369316 9,12 c 10e-8,-1.384982 0.6398477,-2.6118086 1.625,-3.4374999 L 8.5,5.1250001 z m 5,-1.625 c -1.156822,0 -2.24341,0.2386551 -3.25,0.65625 l 2.125,3.5 c 0.361575,-0.093757 0.734237,-0.15625 1.125,-0.15625 1.952235,0 3.597923,1.2602843 4.21875,2.9999999 l 4.125,0 C 21.614747,9.2115262 21.117939,8.0176458 20.375,7.0000001 c -0.561079,0.3000017 -1.194684,0.5 -1.875,0.5 -2.187001,10e-8 -3.966437,-1.7584419 -4,-3.9375 -0.326981,-0.03825 -0.662803,-0.0625 -1,-0.0625 z M 20.500065,3.5 a 2.0000645,2.0000645 0 1 1 -4.000129,0 2.0000645,2.0000645 0 1 1 4.000129,0 z m -1.23e-4,17 a 1.9999425,1.9999425 0 1 1 -3.999885,0 1.9999425,1.9999425 0 1 1 3.999885,0 z m -14.9999929,-9 a 1.9999489,1.9999489 0 1 1 -3.9998979,0 1.9999489,1.9999489 0 1 1 3.9998979,0 z"
       id="path3939"
       style="opacity:0.15;fill:none;stroke:#000000;stroke-width:2;stroke-linecap:square;stroke-linejoin:round;stroke-miterlimit:4;stroke-opacity:1;stroke-dasharray:none;display:inline;enable-background:new" />
    <path
       d="m 17.96875,12.5 c -0.173489,1.378272 -0.975312,2.670429 -2.184372,3.373193 -1.011352,0.607656 -2.271288,0.78983 -3.409378,0.470557 -0.697917,1.166667 -1.395833,2.333333 -2.09375,3.5 1.324994,0.553063 2.79191,0.776152 4.21875,0.59375 -0.0073,-1.862092 1.461217,-3.583249 3.298768,-3.876142 C 18.675765,16.393835 19.596785,16.571788 20.375,17 21.212908,15.840622 21.77215,14.458606 21.90625,13.032214 21.88347,12.867251 21.95054,12.612445 21.87524,12.5 c -1.302164,0 -2.604327,0 -3.906491,0 z M 8.5,5.1250001 C 7.3803721,5.9401955 6.4545109,7.0247777 5.84375,8.2812501 6.8452549,9.0084339 7.5,10.168567 7.5,11.5 c -1e-7,1.468745 -0.787886,2.74193 -1.96875,3.4375 0.5854374,1.586235 1.6276344,2.956748 2.96875,3.9375 l 2.09375,-3.46875 C 9.6277906,14.580676 9,13.369316 9,12 c 10e-8,-1.384982 0.6398477,-2.6118086 1.625,-3.4374999 L 8.5,5.1250001 z m 5,-1.625 c -1.156822,0 -2.24341,0.2386551 -3.25,0.65625 l 2.125,3.5 c 0.361575,-0.093757 0.734237,-0.15625 1.125,-0.15625 1.952235,0 3.597923,1.2602843 4.21875,2.9999999 l 4.125,0 C 21.614747,9.2115262 21.117939,8.0176458 20.375,7.0000001 c -0.561079,0.3000017 -1.194684,0.5 -1.875,0.5 -2.187001,10e-8 -3.966437,-1.7584419 -4,-3.9375 -0.326981,-0.03825 -0.662803,-0.0625 -1,-0.0625 z M 20.500065,3.5 a 2.0000645,2.0000645 0 1 1 -4.000129,0 2.0000645,2.0000645 0 1 1 4.000129,0 z m -1.23e-4,17 a 1.9999425,1.9999425 0 1 1 -3.999885,0 1.9999425,1.9999425 0 1 1 3.999885,0 z m -14.9999929,-9 a 1.9999489,1.9999489 0 1 1 -3.9998979,0 1.9999489,1.9999489 0 1 1 3.9998979,0 z"
       id="path5773"
       style="fill:url(#radialGradient3665);fill-opacity:1;stroke:url(#linearGradient3657);stroke-width:1;stroke-linecap:square;stroke-linejoin:round;stroke-miterlimit:4;stroke-opacity:1;stroke-dasharray:none;display:inline;enable-background:new" />
  </g>
</svg>

<?xml version="1.0" encoding="UTF-8" standalone="no"?>
<!-- Created with Inkscape (http://www.inkscape.org/) -->
<svg id="svg2" xmlns="http://www.w3.org/2000/svg" height="22" width="22" version="1.0" xmlns:xlink="http://www.w3.org/1999/xlink">
 <defs id="defs4">
  <linearGradient id="linearGradient3657" y2="1" gradientUnits="userSpaceOnUse" x2="14" y1="23" x1="14">
   <stop id="stop3624" style="stop-color:#bb2b12" offset="0"/>
   <stop id="stop3626" style="stop-color:#cd7233" offset="1"/>
  </linearGradient>
  <radialGradient id="radialGradient3665" gradientUnits="userSpaceOnUse" cy="2.8999" cx="11" gradientTransform="matrix(-6.543e-8 2.0549 -2.0549 -6.543e-8 13.959 -21.604)" r="10.706">
   <stop id="stop3618" style="stop-color:#f0c178" offset="0"/>
   <stop id="stop3270" style="stop-color:#e18941" offset=".5"/>
   <stop id="stop3620" style="stop-color:#ec4f18" offset="1"/>
  </radialGradient>
 </defs>
 <g id="layer1" transform="translate(-1.0001 -.99994)">
  <path id="path3939" style="opacity:.15;stroke-linejoin:round;stroke-width:2;stroke:#000;stroke-linecap:square;enable-background:new;fill:none" d="m17.969 12.5c-0.17349 1.3783-0.97531 2.6704-2.1844 3.3732-1.0114 0.60766-2.2713 0.78983-3.4094 0.47056-0.69792 1.1667-1.3958 2.3333-2.0938 3.5 1.325 0.55306 2.7919 0.77615 4.2188 0.59375-0.0073-1.8621 1.4612-3.5832 3.2988-3.8761 0.877-0.168 1.798 0.01 2.576 0.438 0.838-1.159 1.397-2.541 1.531-3.968-0.023-0.165 0.045-0.42-0.031-0.532h-3.9065zm-9.469-7.375c-1.1196 0.8152-2.0455 1.8998-2.6562 3.1563 1.0015 0.7271 1.6562 1.8877 1.6562 3.2187-1e-7 1.4687-0.78789 2.7419-1.9688 3.4375 0.58544 1.5862 1.6276 2.9567 2.9688 3.9375l2.0938-3.4688c-0.9662-0.825-1.594-2.037-1.594-3.406 1e-7 -1.385 0.63985-2.6118 1.625-3.4375l-2.125-3.4375zm5-1.625c-1.1568 0-2.2434 0.23866-3.25 0.65625l2.125 3.5c0.36158-0.093757 0.73424-0.15625 1.125-0.15625 1.9522 0 3.5979 1.2603 4.2188 3h4.125c-0.229-1.2885-0.726-2.4824-1.469-3.5-0.56108 0.3-1.1947 0.5-1.875 0.5-2.187 1e-7 -3.9664-1.7584-4-3.9375-0.32698-0.03825-0.6628-0.0625-1-0.0625zm7 0a2.0001 2.0001 0 1 1 -4.0001 0 2.0001 2.0001 0 1 1 4.0001 0zm-0.000123 17a1.9999 1.9999 0 1 1 -3.9999 0 1.9999 1.9999 0 1 1 3.9999 0zm-15-9a1.9999 1.9999 0 1 1 -3.9999 0 1.9999 1.9999 0 1 1 3.9999 0z"/>
  <path id="path5773" style="stroke-linejoin:round;stroke:url(#linearGradient3657);stroke-linecap:square;enable-background:new;fill:url(#radialGradient3665)" d="m17.969 12.5c-0.17349 1.3783-0.97531 2.6704-2.1844 3.3732-1.0114 0.60766-2.2713 0.78983-3.4094 0.47056-0.69792 1.1667-1.3958 2.3333-2.0938 3.5 1.325 0.55306 2.7919 0.77615 4.2188 0.59375-0.0073-1.8621 1.4612-3.5832 3.2988-3.8761 0.877-0.168 1.798 0.01 2.576 0.438 0.838-1.159 1.397-2.541 1.531-3.968-0.023-0.165 0.045-0.42-0.031-0.532h-3.9065zm-9.469-7.375c-1.1196 0.8152-2.0455 1.8998-2.6562 3.1563 1.0015 0.7271 1.6562 1.8877 1.6562 3.2187-1e-7 1.4687-0.78789 2.7419-1.9688 3.4375 0.58544 1.5862 1.6276 2.9567 2.9688 3.9375l2.0938-3.4688c-0.9662-0.825-1.594-2.037-1.594-3.406 1e-7 -1.385 0.63985-2.6118 1.625-3.4375l-2.125-3.4375zm5-1.625c-1.1568 0-2.2434 0.23866-3.25 0.65625l2.125 3.5c0.36158-0.093757 0.73424-0.15625 1.125-0.15625 1.9522 0 3.5979 1.2603 4.2188 3h4.125c-0.229-1.2885-0.726-2.4824-1.469-3.5-0.56108 0.3-1.1947 0.5-1.875 0.5-2.187 1e-7 -3.9664-1.7584-4-3.9375-0.32698-0.03825-0.6628-0.0625-1-0.0625zm7 0a2.0001 2.0001 0 1 1 -4.0001 0 2.0001 2.0001 0 1 1 4.0001 0zm-0.000123 17a1.9999 1.9999 0 1 1 -3.9999 0 1.9999 1.9999 0 1 1 3.9999 0zm-15-9a1.9999 1.9999 0 1 1 -3.9999 0 1.9999 1.9999 0 1 1 3.9999 0z"/>
 </g>
</svg>
